dist/svg/object-based/star-rating_128.svg

<svg xmlns="http://www.w3.org/2000/svg" viewBox="0 0 128 128"><path d="M124 52l-44-4L64 4 48 48 4 52l36 28-12 44 36-28 36 28-12-44 36-28zm-31.017 61.476L66.456 92.843 64 90.933l-2.456 1.91-26.528 20.633 8.842-32.423.702-2.573-2.105-1.637-27.998-21.777 33.905-3.083 2.53-.23.867-2.386L64 15.705l12.24 33.663.87 2.387 2.528.23 33.905 3.082-28 21.776-2.103 1.637.702 2.573 8.84 32.423z"/></svg>

<?xml version="1.0" encoding="utf-8"?>
<!-- Generator: Adobe Illustrator 17.1.0, SVG Export Plug-In . SVG Version: 6.00 Build 0)  -->
<!DOCTYPE svg PUBLIC "-//W3C//DTD SVG 1.1//EN" "http://www.w3.org/Graphics/SVG/1.1/DTD/svg11.dtd">
<svg version="1.1" id="Layer_1" xmlns="http://www.w3.org/2000/svg" xmlns:xlink="http://www.w3.org/1999/xlink" x="0px" y="0px"
	 width="128px" height="128px" viewBox="0 0 128 128" enable-background="new 0 0 128 128" xml:space="preserve">
<path d="M123.999,52l-44-4l-16-44l-16,44l-44,4l36,28l-12,44l36-28l36,28l-12-44L123.999,52z M92.983,113.476L66.455,92.843
	l-2.456-1.91l-2.456,1.91l-26.528,20.633l8.842-32.423l0.702-2.573l-2.105-1.637L14.456,55.066l33.905-3.083l2.529-0.229
	l0.868-2.387l12.241-33.663L76.24,49.367l0.868,2.387l2.529,0.229l33.905,3.083L85.544,76.843l-2.105,1.637l0.702,2.573
	L92.983,113.476z"/>
</svg>
